assets/images/logo-archimedes.svg

<svg fill="none" height="60" viewBox="0 0 408 60" width="408" xmlns="http://www.w3.org/2000/svg"><g fill="#000"><path d="m79.2428 8.38086h-2.0367v43.26024h2.0367z"/><path d="m44.215 0-43.15418 24.8656 32.50358 18.6493v-8.3593l-17.9279-10.29 35.7496-20.68597zm8.3805 6.08911-32.5036 18.75529 7.2985 4.1796 6.2164-3.5855 11.7114-6.6832v41.2447l7.2985-4.1796v-49.73129zm-9.5686 16.50639-7.2985 4.1796v7.0439 22.0014l7.2985 4.1796zm-43.0269 4.1796v8.3593l25.099 14.5756 7.2984-4.1796-16.1456-9.4413z"/><path d="m124.667 42.433-9.929-24.8656h-4.901l-10.0352 24.8656h6.8102l1.316-3.5856h8.613l1.189 3.5856zm-9.802-8.5926h-5.134l2.504-8.4866h.127z"/><path d="m143.677 42.4333-6.81-8.4866c3.946-.594 6.216-3.9462 6.216-7.7652 0-2.6308-.955-5.1344-2.991-6.8105-2.143-1.6761-5.135-1.7821-7.659-1.7821h-7.893v24.8656h6.089v-7.9986l5.729 7.9986h7.319zm-6.704-15.8911c0 2.5035-1.804 3.5856-4.18 3.5856h-2.143v-6.9378h2.271c2.142 0 4.052.9547 4.052 3.3522z"/><path d="m169.137 33.118h-6.577c-1.188 2.5035-3.225 4.3069-5.983 4.3069-4.074 0-6.683-3.5855-6.683-7.4045s2.63-7.2984 6.577-7.2984c2.864 0 5.134 1.7821 6.089 4.3069h6.577c-.234-1.4427-.828-2.8642-1.676-4.0736-2.504-3.7128-6.45-5.8557-10.884-5.8557-7.299 0-13.027 5.6224-13.027 12.8996 0 7.2984 5.856 12.8996 13.027 12.8996 6.11.0212 11.117-3.819 12.56-9.7808z"/><path d="m191.117 42.433v-24.8656h-6.322v9.3352h-8.126v-9.3352h-6.344v24.8656h6.344v-9.908h8.126v9.908z"/><path d="m199.731 17.5674h-6.343v24.8656h6.343z"/><path d="m228.055 42.433v-24.8656h-8.126l-4.901 16.379-5.007-16.379h-8.147v24.8656h5.856l-.234-18.5219.128-.1273 5.261 18.6492h4.18l5.368-18.6492v.1273l-.106 18.5219z"/><path d="m244.201 42.433v-5.495h-7.765v-4.307h7.531v-5.6223h-7.531v-3.819h7.765v-5.6223h-13.876v24.8656z"/><path d="m267.857 30.0002c0-2.7581-.594-5.4951-2.27-7.7652-2.758-3.819-6.45-4.6676-10.99-4.6676h-8.126v24.8656h8.614c8.125 0 12.772-4.3069 12.772-12.4328zm-6.323.1273c0 3.9462-1.676 6.8105-6.089 6.8105h-2.631v-13.7483h2.759c4.158 0 5.961 2.8642 5.961 6.9378z"/><path d="m282.815 42.433v-5.495h-7.659v-4.307h7.404v-5.6223h-7.404v-3.819h7.659v-5.6223h-13.749v24.8656z"/><path d="m301.804 35.2609c0-3.819-2.504-5.4951-5.856-7.0439-1.082-.488-4.307-1.8034-4.901-2.7581-.233-.3607-.233-.7214-.233-1.0821 0-1.1881 1.082-1.9094 2.143-1.9094 1.676 0 2.142 1.082 2.397 2.3974h6.216c0-1.9095-.36-3.3522-1.676-4.901-1.548-1.9095-4.307-2.8642-6.683-2.8642-4.179 0-8.72 2.7581-8.72 7.4045 0 3.819 2.864 5.7285 6.089 7.0439.722.3607 1.549.594 2.271.9547 1.315.5941 2.63 1.0821 2.63 2.7582 0 1.3154-1.082 2.3974-2.397 2.3974-1.91 0-2.631-1.7822-2.631-3.4583h-6.344v.8275c0 5.3677 3.947 7.8925 8.975 7.8925 4.901 0 8.72-2.3975 8.72-7.6591z"/><path d="m310.651 17.334h-6.683v25.3324h6.683c7.892 0 12.666-5.7285 12.666-12.7935 0-6.9166-4.774-12.5389-12.666-12.5389zm0 22.0014h-3.225v-18.5219h3.225c5.856 0 9.208 3.9462 9.208 9.0806s-3.352 9.4413-9.208 9.4413z"/><path d="m328.091 17.334h-3.459v25.3324h3.459z"/><path d="m342.453 29.1724v3.3521h6.578v5.389c-1.804 1.1881-4.074 1.7822-6.45 1.7822-5.623 0-9.442-4.413-9.442-9.6747s3.819-9.6747 9.442-9.6747c2.991 0 5.261 1.0821 7.044 2.8642l2.27-2.5035c-2.27-2.2701-5.495-3.7129-9.314-3.7129-7.893 0-12.9 6.0891-12.9 13.0269 0 7.0439 5.028 13.0269 12.9 13.0269 4.073 0 7.532-1.3154 9.802-3.7129v-10.1626z"/><path d="m358.111 17.334h-3.352v25.3324h3.352z"/><path d="m375.445 17.334h-16.019v3.4583h6.45v21.8741h3.352v-21.8741h6.217z"/><path d="m389.894 42.6657h3.819l-11.245-25.693h-.488l-11.117 25.693h3.819l2.143-5.3889h10.884zm-11.584-8.7199 3.946-9.6747 4.074 9.6747z"/><path d="m398.041 39.3354v-22.0014h-3.479v25.3324h12.793v-3.331z"/></g></svg>

<svg width="408" height="60" viewBox="0 0 408 60" fill="none" xmlns="http://www.w3.org/2000/svg">
<path d="M79.2428 8.38086H77.2061V51.6411H79.2428V8.38086Z" fill="black"/>
<path d="M44.215 0L1.06082 24.8656L33.5644 43.5149V35.1556L15.6365 24.8656L51.3861 4.17963L44.215 0ZM52.5955 6.08911L20.0919 24.8444L27.3904 29.024L33.6068 25.4385L45.3182 18.7553V60L52.6167 55.8204V6.08911H52.5955ZM43.0269 22.5955L35.7284 26.7751V33.819V55.8204L43.0269 60V22.5955ZM0 26.7751V35.1344L25.099 49.71L32.3974 45.5304L16.2518 36.0891L0 26.7751Z" fill="black"/>
<path d="M124.667 42.433L114.738 17.5674H109.837L99.8018 42.433H106.612L107.928 38.8474H116.541L117.73 42.433H124.667ZM114.865 33.8404H109.731L112.235 25.3538H112.362L114.865 33.8404Z" fill="black"/>
<path d="M143.677 42.4333L136.867 33.9467C140.813 33.3527 143.083 30.0005 143.083 26.1815C143.083 23.5507 142.128 21.0471 140.092 19.371C137.949 17.6949 134.957 17.5889 132.433 17.5889H124.54V42.4545H130.629V34.4559L136.358 42.4545H143.677V42.4333ZM136.973 26.5422C136.973 29.0457 135.169 30.1278 132.793 30.1278H130.65V23.19H132.921C135.063 23.19 136.973 24.1447 136.973 26.5422Z" fill="black"/>
<path d="M169.137 33.118H162.56C161.372 35.6215 159.335 37.4249 156.577 37.4249C152.503 37.4249 149.894 33.8394 149.894 30.0204C149.894 26.2014 152.524 22.722 156.471 22.722C159.335 22.722 161.605 24.5041 162.56 27.0289H169.137C168.903 25.5862 168.309 24.1647 167.461 22.9553C164.957 19.2425 161.011 17.0996 156.577 17.0996C149.278 17.0996 143.55 22.722 143.55 29.9992C143.55 37.2976 149.406 42.8988 156.577 42.8988C162.687 42.92 167.694 39.0798 169.137 33.118Z" fill="black"/>
<path d="M191.117 42.433V17.5674H184.795V26.9026H176.669V17.5674H170.325V42.433H176.669V32.525H184.795V42.433H191.117Z" fill="black"/>
<path d="M199.731 17.5674H193.388V42.433H199.731V17.5674Z" fill="black"/>
<path d="M228.055 42.433V17.5674H219.929L215.028 33.9464L210.021 17.5674H201.874V42.433H207.73L207.496 23.9111L207.624 23.7838L212.885 42.433H217.065L222.433 23.7838V23.9111L222.327 42.433H228.055Z" fill="black"/>
<path d="M244.201 42.433V36.938H236.436V32.631H243.967V27.0087H236.436V23.1897H244.201V17.5674H230.325V42.433H244.201Z" fill="black"/>
<path d="M267.857 30.0002C267.857 27.2421 267.263 24.5051 265.587 22.235C262.829 18.416 259.137 17.5674 254.597 17.5674H246.471V42.433H255.085C263.21 42.433 267.857 38.1261 267.857 30.0002ZM261.534 30.1275C261.534 34.0737 259.858 36.938 255.445 36.938H252.814V23.1897H255.573C259.731 23.1897 261.534 26.0539 261.534 30.1275Z" fill="black"/>
<path d="M282.815 42.433V36.938H275.156V32.631H282.56V27.0087H275.156V23.1897H282.815V17.5674H269.066V42.433H282.815Z" fill="black"/>
<path d="M301.804 35.2609C301.804 31.4419 299.3 29.7658 295.948 28.217C294.866 27.729 291.641 26.4136 291.047 25.4589C290.814 25.0982 290.814 24.7375 290.814 24.3768C290.814 23.1887 291.896 22.4674 292.957 22.4674C294.633 22.4674 295.099 23.5494 295.354 24.8648H301.57C301.57 22.9553 301.21 21.5126 299.894 19.9638C298.346 18.0543 295.587 17.0996 293.211 17.0996C289.032 17.0996 284.491 19.8577 284.491 24.5041C284.491 28.3231 287.355 30.2326 290.58 31.548C291.302 31.9087 292.129 32.142 292.851 32.5027C294.166 33.0968 295.481 33.5848 295.481 35.2609C295.481 36.5763 294.399 37.6583 293.084 37.6583C291.174 37.6583 290.453 35.8761 290.453 34.2H284.109V35.0275C284.109 40.3952 288.056 42.92 293.084 42.92C297.985 42.92 301.804 40.5225 301.804 35.2609Z" fill="black"/>
<path d="M310.651 17.334H303.968V42.6664H310.651C318.543 42.6664 323.317 36.9379 323.317 29.8729C323.317 22.9563 318.543 17.334 310.651 17.334ZM310.651 39.3354H307.426V20.8135H310.651C316.507 20.8135 319.859 24.7597 319.859 29.8941C319.859 35.0285 316.507 39.3354 310.651 39.3354Z" fill="black"/>
<path d="M328.091 17.334H324.632V42.6664H328.091V17.334Z" fill="black"/>
<path d="M342.453 29.1724V32.5245H349.031V37.9135C347.227 39.1016 344.957 39.6957 342.581 39.6957C336.958 39.6957 333.139 35.2827 333.139 30.021C333.139 24.7593 336.958 20.3463 342.581 20.3463C345.572 20.3463 347.842 21.4284 349.625 23.2105L351.895 20.707C349.625 18.4369 346.4 16.9941 342.581 16.9941C334.688 16.9941 329.681 23.0832 329.681 30.021C329.681 37.0649 334.709 43.0479 342.581 43.0479C346.654 43.0479 350.113 41.7325 352.383 39.335V29.1724H342.453Z" fill="black"/>
<path d="M358.111 17.334H354.759V42.6664H358.111V17.334Z" fill="black"/>
<path d="M375.445 17.334H359.426V20.7923H365.876V42.6664H369.228V20.7923H375.445V17.334Z" fill="black"/>
<path d="M389.894 42.6657H393.713L382.468 16.9727H381.98L370.863 42.6657H374.682L376.825 37.2768H387.709L389.894 42.6657ZM378.31 33.9458L382.256 24.2711L386.33 33.9458H378.31Z" fill="black"/>
<path d="M398.041 39.3354V17.334H394.562V42.6664H407.355V39.3354H398.041Z" fill="black"/>
</svg>
